app/.vuepress/public/assets/img/illustrations/community.svg

<svg fill="none" height="450" viewBox="0 0 450 450" width="450" xmlns="http://www.w3.org/2000/svg" xmlns:xlink="http://www.w3.org/1999/xlink"><mask id="a" height="450" maskUnits="userSpaceOnUse" width="450" x="0" y="0"><path d="m.5.5h449v449h-449z" fill="#c4c4c4" stroke="#000"/></mask><g mask="url(#a)"><path d="m71.3799 167.062s14.5721 19.166 11.7163 49.457c-1.7575 18.174-.5126 29.74 1.8306 43.398 2.3433 13.659 0 32.605 0 32.605" stroke="#52dec6" stroke-miterlimit="10" stroke-width="1.54329"/><path d="m346.743 310.895h-234.181v-106.681c0-27.654 22.476-50.13 50.13-50.13h133.921c27.654 0 50.13 22.476 50.13 50.13z" fill="#39429c"/><path d="m225.5 191c-21.093 0-38.193-16.555-38.5-37h24.412 29.164 23.424c-.307 20.544-17.407 37-38.5 37z" fill="#fff"/><path d="m240.208 154.912-4.208-26.912m-25 26.912 1-26.912" stroke="#39429c" stroke-width="1.2403"/><path d="m212 128v-40.5242c0-9.1078 7.497-16.4758 16.765-16.4758h12.183c16.035 0 29.051 12.7917 29.051 28.5512.105 15.6568-12.963 28.4488-28.999 28.4488h-5.5" stroke="#39429c" stroke-width="1.2403"/><path d="m245.136 110.686c4.519 0 8.183-4.173 8.183-9.321 0-5.1486-3.664-9.322-8.183-9.322s-8.182 4.1734-8.182 9.322c0 5.148 3.663 9.321 8.182 9.321z" stroke="#39429c" stroke-miterlimit="10" stroke-width="1.39075"/><path d="m268.545 110.686c4.519 0 8.182-4.173 8.182-9.321 0-5.1486-3.663-9.322-8.182-9.322s-8.183 4.1734-8.183 9.322c0 5.148 3.664 9.321 8.183 9.321z" stroke="#39429c" stroke-miterlimit="10" stroke-width="1.39075"/><path d="m212 103.162s10.059 3.241 12.341-3.024c2.281-6.2656-1.348-14.3671 4.148-18.2558 5.6-3.8887 14.934-5.9411 23.437-.9722 2.801 1.6203 5.497 1.7283 7.986.9722 6.429-1.9444 4.874-11.8822-1.867-11.8822h-31.734c-7.881 0-14.311 6.6972-14.311 14.9068z" fill="#599af2"/><path d="m256.427 119.493-12.947-2.279s-.518 5.179 5.075 6.214c5.697.932 7.872-3.935 7.872-3.935z" fill="#ef6d9c"/><path d="m253.32 101.366h6.939" stroke="#39429c" stroke-miterlimit="10" stroke-width="1.39075"/><path d="m248.658 105.82c.687 0 1.243-.557 1.243-1.243 0-.687-.556-1.243-1.243-1.243-.686 0-1.242.556-1.242 1.243 0 .686.556 1.243 1.242 1.243z" fill="#39429c"/><path d="m267.198 105.82c.687 0 1.243-.557 1.243-1.243 0-.687-.556-1.243-1.243-1.243-.686 0-1.242.556-1.242 1.243 0 .686.556 1.243 1.242 1.243z" fill="#39429c"/><path d="m240.576 154h23.424c-.307 21.1-17.407 38-38.5 38s-38.193-17.003-38.5-38h24.412" stroke="#39429c" stroke-width="1.2403"/><path d="m240.165 112.656c0 3.107-2.486 5.592-5.593 5.592s-5.593-2.485-5.593-5.592c0-3.108 2.486-5.594 5.593-5.594 3.107.001 5.593 2.486 5.593 5.594z" fill="#ef6d9c"/><path d="m410.959 274.228h-161.161c-6.111 0-11.082-4.971-11.082-11.082v-76.438c0-6.11 4.971-11.082 11.082-11.082h161.161c6.111 0 11.083 4.972 11.083 11.082v76.438c0 6.111-4.972 11.082-11.083 11.082z" fill="#78eed3"/><path d="m417.381 274.228h-161.161c-6.111 0-11.083-4.971-11.083-11.082v-76.438c0-6.11 4.972-11.082 11.083-11.082h161.161c6.111 0 11.082 4.972 11.082 11.082v76.438c0 6.111-4.971 11.082-11.082 11.082z" fill="#82a8ff"/><path d="m382.891 310.896h-23.304c-4.143 0-7.872-2.796-8.908-6.835l-17.193-64.527c-1.554-5.904 2.9-11.6 8.907-11.6h23.305c4.143 0 7.871 2.796 8.907 6.835l17.193 64.527c1.554 5.904-2.9 11.6-8.907 11.6z" fill="#78eed3"/><path d="m377.816 310.894h-78.199c-1.864 0-3.418-1.553-3.418-3.417 0-1.865 1.554-3.418 3.418-3.418h78.199c1.864 0 3.418 1.553 3.418 3.418.103 1.967-1.45 3.417-3.418 3.417z" fill="#78eed3"/><path d="m333.486 239.532 9.218 34.698h-28.794z" fill="#39429c"/><path d="m281.284 310.895h-97.67c-.932 0-1.761-.725-1.761-1.761 0-.932.725-1.761 1.761-1.761h97.67c.932 0 1.761.725 1.761 1.761-.104 1.036-.829 1.761-1.761 1.761z" fill="#599af2"/><g fill="#fff"><path d="m242.651 302.195c-.829-.518-1.036-1.657-.518-2.486l6.525-9.632c.518-.829 1.657-1.036 2.486-.518.828.518 1.036 1.657.518 2.485l-6.525 9.633c-.622.828-1.761 1.036-2.486.518z"/><path d="m247.933 303.645c-.828-.414-1.243-1.554-.828-2.382l5.178-10.358c.415-.828 1.554-1.243 2.383-.828.828.414 1.242 1.553.828 2.382l-5.179 10.357c-.414.932-1.553 1.243-2.382.829z"/><path d="m254.044 304.06c-.932-.311-1.45-1.347-1.035-2.279l3.935-10.875c.311-.932 1.347-1.45 2.279-1.036.932.311 1.45 1.346 1.036 2.279l-3.936 10.875c-.311.828-1.346 1.346-2.279 1.036z"/><path d="m260.259 291.319 11.082 9.529s-3.625 3.418-7.25 1.036-5.903-6.007-5.903-6.007z"/><path d="m202.672 302.195c.829-.518 1.036-1.657.518-2.486l-6.525-9.632c-.518-.829-1.658-1.036-2.486-.518-.829.518-1.036 1.657-.518 2.485l6.525 9.633c.622.828 1.657 1.036 2.486.518z"/><path d="m197.389 303.645c.829-.414 1.243-1.554.829-2.382l-5.179-10.358c-.414-.828-1.554-1.243-2.382-.828-.829.414-1.243 1.553-.829 2.382l5.179 10.357c.414.932 1.553 1.243 2.382.829z"/><path d="m191.279 304.06c.932-.311 1.45-1.347 1.035-2.279l-3.935-10.875c-.311-.932-1.347-1.45-2.279-1.036-.932.311-1.45 1.346-1.036 2.279l3.936 10.875c.311.828 1.347 1.346 2.279 1.036z"/><path d="m185.064 291.319-11.082 9.529s3.625 3.418 7.25 1.036 5.904-6.007 5.904-6.007z"/></g><path d="m181.853 294.013-10.979-14.293c-11.082-14.397-28.172-22.786-46.297-22.786h-1.243" stroke="#52dec6" stroke-miterlimit="10" stroke-width="1.39075"/><path d="m155.959 263.354-16.779-23.822" stroke="#52dec6" stroke-miterlimit="10" stroke-width="1.39075"/><path d="m261.708 72.3652s-3.418 7.4574-11.807 5.6966c-8.286-1.7608-20.508-3.5215-24.754 1.3465-4.247 4.868-8.493 11.8074-12.947 10.9788" stroke="#39429c" stroke-miterlimit="10" stroke-width=".347656"/><path d="m212.304 95.2547s7.353 1.5536 9.632-2.4858c2.382-4.0394 2.175-9.736 6.94-12.2217 4.764-2.4858 13.257-1.5536 14.5-1.4501" stroke="#39429c" stroke-miterlimit="10" stroke-width=".347656"/><path d="m264.194 76.3018s-4.971 7.8716-11.911 5.4894" stroke="#39429c" stroke-miterlimit="10" stroke-width=".347656"/><path d="m217 103.114c-.444-.114-1.037-.114-1.481-.114-3.704 0-6.519 2.273-6.519 5 0 2.841 2.963 5 6.519 5 .444 0 1.037 0 1.481-.114z" fill="#52dec6"/><path d="m65.5713 269.18s-13.7731-18.582 0-30.046c13.7731-11.371 7.5798-31.894 0-45.206-7.5798-13.313-6.8403-34.761 8.1345-41.417 14.9747-6.656 25.2352 20.893 21.6302 43.173-3.6051 22.28-3.8824 26.163 4.899 39.383 8.782 13.22 3.143 34.113 3.143 34.113" stroke="#52dec6" stroke-miterlimit="10" stroke-width="1.39075"/><path d="m51.2464 263.354c-1.1393 3.522-1.8643 7.251-1.8643 11.186 0 19.576 15.8468 35.319 35.3187 35.319 19.5752 0 35.3192-15.847 35.3192-35.319 0-3.935-.622-7.664-1.865-11.186z" fill="#ef6d9c"/><path d="m48.0353 310.897s-1.5536-29.104-12.5325-39.462c-10.8753-10.357-4.9715-26.825-15.6397-29.933-10.66809-3.107-17.4004 6.215-10.66809 21.854 6.83589 15.64 12.53249 19.472 12.53249 23.201 0 3.832.3107 24.34.3107 24.34" fill="#599af2"/><path d="m15.6167 246.37s-2.9001 9.425 4.9715 22.786c7.8717 13.361 13.0504 14.086 15.1219 23.822 2.0714 9.633 1.3464 18.022 1.3464 18.022" stroke="#39429c" stroke-miterlimit="10" stroke-width="1.39075"/><path d="m35.8139 292.875-14.0861-6.318" stroke="#39429c" stroke-miterlimit="10" stroke-width="1.39075"/><path d="m27.2163 278.685 4.9716-11.289" stroke="#39429c" stroke-miterlimit="10" stroke-width="1.39075"/><path d="m17.1701 261.906-10.66815-7.975" stroke="#39429c" stroke-miterlimit="10" stroke-width="1.39075"/><path d="m256.426 104.266 4.868 12.014-6.214-.414z" fill="#52dec6"/><path d="m331.119 206.574c-.493-1.481-.74-3.127-.74-4.772 0-1.811.329-3.539.905-5.185" stroke="#52dec6" stroke-miterlimit="10" stroke-width=".781359"/><path d="m360.414 201.886c0 8.311-6.747 15.059-15.059 15.059-4.032 0-7.653-1.563-10.369-4.114" stroke="#52dec6" stroke-miterlimit="10" stroke-width=".781359"/><path d="m355.807 203.858c-.247.988-.576 1.975-1.152 2.881-.577.987-1.317 1.892-2.222 2.633" stroke="#52dec6" stroke-miterlimit="10" stroke-width=".508588"/><path d="m336.88 195.549c2.715-4.69 8.723-6.254 13.413-3.538 2.222 1.316 3.786 3.374 4.444 5.76" stroke="#52dec6" stroke-miterlimit="10" stroke-width=".508588"/><path d="m345.438 214.805c7.272 0 13.167-5.895 13.167-13.167 0-7.271-5.895-13.166-13.167-13.166s-13.167 5.895-13.167 13.166c0 7.272 5.895 13.167 13.167 13.167z" stroke="#52dec6" stroke-miterlimit="10" stroke-width=".508588"/><path d="m345.438 209.455c4.317 0 7.817-3.5 7.817-7.818s-3.5-7.818-7.817-7.818c-4.318 0-7.818 3.5-7.818 7.818s3.5 7.818 7.818 7.818z" fill="#78eed3"/><path d="m-60 310.144h85.0135" stroke="#599af2" stroke-linecap="round" stroke-width="1.2403"/><path d="m41.6267 311h9.37" stroke="#599af2" stroke-linecap="round" stroke-width="1.37634"/><path d="m65.7212 311h365.4308" stroke="#599af2" stroke-linecap="round" stroke-width="1.37634"/><path d="m439.184 311h28.11" stroke="#599af2" stroke-linecap="round" stroke-width="1.37634"/></g></svg>

<svg width="450" height="450" viewBox="0 0 450 450" fill="none" xmlns="http://www.w3.org/2000/svg">
<mask id="mask0" mask-type="alpha" maskUnits="userSpaceOnUse" x="0" y="0" width="450" height="450">
<rect x="0.5" y="0.5" width="449" height="449" fill="#C4C4C4" stroke="black"/>
</mask>
<g mask="url(#mask0)">
<path d="M71.3799 167.062C71.3799 167.062 85.952 186.228 83.0962 216.519C81.3387 234.693 82.5836 246.259 84.9268 259.917C87.2701 273.576 84.9268 292.522 84.9268 292.522" stroke="#52DEC6" stroke-width="1.54329" stroke-miterlimit="10"/>
<path d="M346.743 310.895H112.562V204.214C112.562 176.56 135.038 154.084 162.692 154.084H296.613C324.267 154.084 346.743 176.56 346.743 204.214V310.895Z" fill="#39429C"/>
<path d="M225.5 191C204.407 191 187.307 174.445 187 154H211.412H240.576H264C263.693 174.544 246.593 191 225.5 191Z" fill="white"/>
<path d="M240.208 154.912L236 128M211 154.912L212 128" stroke="#39429C" stroke-width="1.2403"/>
<path d="M212 128V87.4758C212 78.368 219.497 71 228.765 71H240.948C256.983 71 269.999 83.7917 269.999 99.5512C270.104 115.208 257.036 128 241 128H235.5" stroke="#39429C" stroke-width="1.2403"/>
<path d="M245.136 110.686C249.655 110.686 253.319 106.513 253.319 101.365C253.319 96.2164 249.655 92.043 245.136 92.043C240.617 92.043 236.954 96.2164 236.954 101.365C236.954 106.513 240.617 110.686 245.136 110.686Z" stroke="#39429C" stroke-width="1.39075" stroke-miterlimit="10"/>
<path d="M268.545 110.686C273.064 110.686 276.727 106.513 276.727 101.365C276.727 96.2164 273.064 92.043 268.545 92.043C264.026 92.043 260.362 96.2164 260.362 101.365C260.362 106.513 264.026 110.686 268.545 110.686Z" stroke="#39429C" stroke-width="1.39075" stroke-miterlimit="10"/>
<path d="M212 103.162C212 103.162 222.059 106.403 224.341 100.138C226.622 93.8724 222.993 85.7709 228.489 81.8822C234.089 77.9935 243.423 75.9411 251.926 80.91C254.727 82.5303 257.423 82.6383 259.912 81.8822C266.341 79.9378 264.786 70 258.045 70H226.311C218.43 70 212 76.6972 212 84.9068V103.162Z" fill="#599AF2"/>
<path d="M256.427 119.493L243.48 117.214C243.48 117.214 242.962 122.393 248.555 123.428C254.252 124.36 256.427 119.493 256.427 119.493Z" fill="#EF6D9C"/>
<path d="M253.32 101.366H260.259" stroke="#39429C" stroke-width="1.39075" stroke-miterlimit="10"/>
<path d="M248.658 105.82C249.345 105.82 249.901 105.263 249.901 104.577C249.901 103.89 249.345 103.334 248.658 103.334C247.972 103.334 247.416 103.89 247.416 104.577C247.416 105.263 247.972 105.82 248.658 105.82Z" fill="#39429C"/>
<path d="M267.198 105.82C267.885 105.82 268.441 105.263 268.441 104.577C268.441 103.89 267.885 103.334 267.198 103.334C266.512 103.334 265.956 103.89 265.956 104.577C265.956 105.263 266.512 105.82 267.198 105.82Z" fill="#39429C"/>
<path d="M240.576 154H264C263.693 175.1 246.593 192 225.5 192C204.407 192 187.307 174.997 187 154H211.412" stroke="#39429C" stroke-width="1.2403"/>
<path d="M240.165 112.656C240.165 115.763 237.679 118.248 234.572 118.248C231.465 118.248 228.979 115.763 228.979 112.656C228.979 109.548 231.465 107.062 234.572 107.062C237.679 107.063 240.165 109.548 240.165 112.656Z" fill="#EF6D9C"/>
<path d="M410.959 274.228H249.798C243.687 274.228 238.716 269.257 238.716 263.146V186.708C238.716 180.598 243.687 175.626 249.798 175.626H410.959C417.07 175.626 422.042 180.598 422.042 186.708V263.146C422.042 269.257 417.07 274.228 410.959 274.228Z" fill="#78EED3"/>
<path d="M417.381 274.228H256.22C250.109 274.228 245.137 269.257 245.137 263.146V186.708C245.137 180.598 250.109 175.626 256.22 175.626H417.381C423.492 175.626 428.463 180.598 428.463 186.708V263.146C428.463 269.257 423.492 274.228 417.381 274.228Z" fill="#82A8FF"/>
<path d="M382.891 310.896H359.587C355.444 310.896 351.715 308.1 350.679 304.061L333.486 239.534C331.932 233.63 336.386 227.934 342.393 227.934H365.698C369.841 227.934 373.569 230.73 374.605 234.769L391.798 299.296C393.352 305.2 388.898 310.896 382.891 310.896Z" fill="#78EED3"/>
<path d="M377.816 310.894H299.617C297.753 310.894 296.199 309.341 296.199 307.477C296.199 305.612 297.753 304.059 299.617 304.059H377.816C379.68 304.059 381.234 305.612 381.234 307.477C381.337 309.444 379.784 310.894 377.816 310.894Z" fill="#78EED3"/>
<path d="M333.486 239.532L342.704 274.23H313.91L333.486 239.532Z" fill="#39429C"/>
<path d="M281.284 310.895H183.614C182.682 310.895 181.853 310.17 181.853 309.134C181.853 308.202 182.578 307.373 183.614 307.373H281.284C282.216 307.373 283.045 308.098 283.045 309.134C282.941 310.17 282.216 310.895 281.284 310.895Z" fill="#599AF2"/>
<path d="M242.651 302.195C241.822 301.677 241.615 300.538 242.133 299.709L248.658 290.077C249.176 289.248 250.315 289.041 251.144 289.559C251.972 290.077 252.18 291.216 251.662 292.044L245.137 301.677C244.515 302.505 243.376 302.713 242.651 302.195Z" fill="white"/>
<path d="M247.933 303.645C247.105 303.231 246.69 302.091 247.105 301.263L252.283 290.905C252.698 290.077 253.837 289.662 254.666 290.077C255.494 290.491 255.908 291.63 255.494 292.459L250.315 302.816C249.901 303.748 248.762 304.059 247.933 303.645Z" fill="white"/>
<path d="M254.044 304.06C253.112 303.749 252.594 302.713 253.009 301.781L256.944 290.906C257.255 289.974 258.291 289.456 259.223 289.87C260.155 290.181 260.673 291.216 260.259 292.149L256.323 303.024C256.012 303.852 254.977 304.37 254.044 304.06Z" fill="white"/>
<path d="M260.259 291.319L271.341 300.848C271.341 300.848 267.716 304.266 264.091 301.884C260.466 299.502 258.188 295.877 258.188 295.877L260.259 291.319Z" fill="white"/>
<path d="M202.672 302.195C203.501 301.677 203.708 300.538 203.19 299.709L196.665 290.077C196.147 289.248 195.007 289.041 194.179 289.559C193.35 290.077 193.143 291.216 193.661 292.044L200.186 301.677C200.808 302.505 201.843 302.713 202.672 302.195Z" fill="white"/>
<path d="M197.389 303.645C198.218 303.231 198.632 302.091 198.218 301.263L193.039 290.905C192.625 290.077 191.485 289.662 190.657 290.077C189.828 290.491 189.414 291.63 189.828 292.459L195.007 302.816C195.421 303.748 196.56 304.059 197.389 303.645Z" fill="white"/>
<path d="M191.279 304.06C192.211 303.749 192.729 302.713 192.314 301.781L188.379 290.906C188.068 289.974 187.032 289.456 186.1 289.87C185.168 290.181 184.65 291.216 185.064 292.149L189 303.024C189.311 303.852 190.347 304.37 191.279 304.06Z" fill="white"/>
<path d="M185.064 291.319L173.982 300.848C173.982 300.848 177.607 304.266 181.232 301.884C184.857 299.502 187.136 295.877 187.136 295.877L185.064 291.319Z" fill="white"/>
<path d="M181.853 294.013L170.874 279.72C159.792 265.323 142.702 256.934 124.577 256.934H123.334" stroke="#52DEC6" stroke-width="1.39075" stroke-miterlimit="10"/>
<path d="M155.959 263.354L139.18 239.532" stroke="#52DEC6" stroke-width="1.39075" stroke-miterlimit="10"/>
<path d="M261.708 72.3652C261.708 72.3652 258.29 79.8226 249.901 78.0618C241.615 76.301 229.393 74.5403 225.147 79.4083C220.9 84.2763 216.654 91.2157 212.2 90.3871" stroke="#39429C" stroke-width="0.347656" stroke-miterlimit="10"/>
<path d="M212.304 95.2547C212.304 95.2547 219.657 96.8083 221.936 92.7689C224.318 88.7295 224.111 83.0329 228.876 80.5472C233.64 78.0614 242.133 78.9936 243.376 79.0971" stroke="#39429C" stroke-width="0.347656" stroke-miterlimit="10"/>
<path d="M264.194 76.3018C264.194 76.3018 259.223 84.1734 252.283 81.7912" stroke="#39429C" stroke-width="0.347656" stroke-miterlimit="10"/>
<path d="M217 103.114C216.556 103 215.963 103 215.519 103C211.815 103 209 105.273 209 108C209 110.841 211.963 113 215.519 113C215.963 113 216.556 113 217 112.886V103.114Z" fill="#52DEC6"/>
<path d="M65.5713 269.18C65.5713 269.18 51.7982 250.598 65.5713 239.134C79.3444 227.763 73.1511 207.24 65.5713 193.928C57.9915 180.615 58.731 159.167 73.7058 152.511C88.6805 145.855 98.941 173.404 95.336 195.684C91.7309 217.964 91.4536 221.847 100.235 235.067C109.017 248.287 103.378 269.18 103.378 269.18" stroke="#52DEC6" stroke-width="1.39075" stroke-miterlimit="10"/>
<path d="M51.2464 263.354C50.1071 266.876 49.3821 270.605 49.3821 274.54C49.3821 294.116 65.2289 309.859 84.7008 309.859C104.276 309.859 120.02 294.012 120.02 274.54C120.02 270.605 119.398 266.876 118.155 263.354H51.2464Z" fill="#EF6D9C"/>
<path d="M48.0353 310.897C48.0353 310.897 46.4817 281.793 35.5028 271.435C24.6275 261.078 30.5313 244.61 19.8631 241.502C9.19501 238.395 2.4627 247.717 9.19501 263.356C16.0309 278.996 21.7275 282.828 21.7275 286.557C21.7275 290.389 22.0382 310.897 22.0382 310.897" fill="#599AF2"/>
<path d="M15.6167 246.37C15.6167 246.37 12.7166 255.795 20.5882 269.156C28.4599 282.517 33.6386 283.242 35.7101 292.978C37.7815 302.611 37.0565 311 37.0565 311" stroke="#39429C" stroke-width="1.39075" stroke-miterlimit="10"/>
<path d="M35.8139 292.875L21.7278 286.557" stroke="#39429C" stroke-width="1.39075" stroke-miterlimit="10"/>
<path d="M27.2163 278.685L32.1879 267.396" stroke="#39429C" stroke-width="1.39075" stroke-miterlimit="10"/>
<path d="M17.1701 261.906L6.50195 253.931" stroke="#39429C" stroke-width="1.39075" stroke-miterlimit="10"/>
<path d="M256.426 104.266L261.294 116.28L255.08 115.866L256.426 104.266Z" fill="#52DEC6"/>
<path d="M331.119 206.574C330.626 205.093 330.379 203.447 330.379 201.802C330.379 199.991 330.708 198.263 331.284 196.617" stroke="#52DEC6" stroke-width="0.781359" stroke-miterlimit="10"/>
<path d="M360.414 201.886C360.414 210.197 353.667 216.945 345.355 216.945C341.323 216.945 337.702 215.382 334.986 212.831" stroke="#52DEC6" stroke-width="0.781359" stroke-miterlimit="10"/>
<path d="M355.807 203.858C355.56 204.846 355.231 205.833 354.655 206.739C354.078 207.726 353.338 208.631 352.433 209.372" stroke="#52DEC6" stroke-width="0.508588" stroke-miterlimit="10"/>
<path d="M336.88 195.549C339.595 190.859 345.603 189.295 350.293 192.011C352.515 193.327 354.079 195.385 354.737 197.771" stroke="#52DEC6" stroke-width="0.508588" stroke-miterlimit="10"/>
<path d="M345.438 214.805C352.71 214.805 358.605 208.91 358.605 201.638C358.605 194.367 352.71 188.472 345.438 188.472C338.166 188.472 332.271 194.367 332.271 201.638C332.271 208.91 338.166 214.805 345.438 214.805Z" stroke="#52DEC6" stroke-width="0.508588" stroke-miterlimit="10"/>
<path d="M345.438 209.455C349.755 209.455 353.255 205.955 353.255 201.637C353.255 197.319 349.755 193.819 345.438 193.819C341.12 193.819 337.62 197.319 337.62 201.637C337.62 205.955 341.12 209.455 345.438 209.455Z" fill="#78EED3"/>
<path d="M-60 310.144L25.0135 310.144" stroke="#599AF2" stroke-width="1.2403" stroke-linecap="round"/>
<path d="M41.6267 311L50.9967 311" stroke="#599AF2" stroke-width="1.37634" stroke-linecap="round"/>
<path d="M65.7212 311L431.152 311" stroke="#599AF2" stroke-width="1.37634" stroke-linecap="round"/>
<path d="M439.184 311H467.294" stroke="#599AF2" stroke-width="1.37634" stroke-linecap="round"/>
</g>
</svg>
